X:572
T:(untitled)
C:John Malchair's Third Collection of Tunes
F:https://www.vwml.org/record/Malchair/3619/p57
F:www.vwml.org/topics/historic-dance-and-tune-books/Malchair
Z:Eric Conrad Jan 2020
N:NB1 The start of repeat in A is missing in MS, assuming here that it comes after the pickup.
N:NB2 The last measure of B in MS is | D2z2 :| (short measure).
M:3/4
L:1/8
K:D
P:A
D/C/ |: "_NB1"D2[df]2[df]2 | D2[df]2[df]2 | [Ag]4e2 | A,2[ce]2[ce]2 | A,2[ce]2[ce]2 | f4d2 :|
P:B
|: (A4F2) | (G4E2) | F2(FG)F2 | F2(FG)F2 | (A4F2) | G4E2 | F2FGFE | "_NB2"D4z2 :|



